X:1
T:Hither, Ye Faithful
T:John Francis Wade, ca. 1743; translator unknown
T:Hither, Ye Faithful
T:Public Domain
T:Public Domain
C:John Francis Wade, ca. 1743; translator unknown
Z:Public Domain
%%score ( 1 2 ) ( 3 4 )
L:1/8
M:4/4
K:G
V:1 treble 
V:2 treble 
V:3 bass 
V:4 bass 
V:1
 [DG]4 D2 [EG]2 | [DA]4 D4 | [B,B]2 [DA]2 [DB]2 [Ec]2 | [DB]4 [DA]2 [B,G]2 | [B,G]4 [DF]2 [CE]2 | %5
w: 1.~Hith- er, ye|ful, haste|songs of tri- umph,|To Beth- le-|hem go your|
w: 2.~O Je- sus,|such won-|con- des- cen- sion,|Our prais- es|and rev- erence|
w: 3.~Shout His al-|y name,|choirs of an- gels,|And let the|ce- les- tial|
 [DF]2 [EG]2 [DA]2 [DB]2 | [DF]4 [^CE]4 | D8 | [Gd]4 [Fc]2 [GB]2 | [Ac]4 [GB]4 | %10
w: Lord of life to|meet; To|you|day is born|a prince|
w: are an off- ering|meet; Now|is|Word made flesh|and dwells|
w: courts His praise re-|peat; Un-|to|God be glo-|ry in|
 [FA]2 [EB]2 [EG]2 [DA]2 | (F3 E) D2 ||"^Refrain" G2 | G2 F2 G2 A2 | G4 D2 B2 | B2 A2 B2 c2 | %16
w: and sav- ior. *||||||
w: a- mong us. O|come * and|wor-|ship, O come and|let us wor-|ship, O come and|
w: the high- est. *||||||
 B4 A2 [GB]2 | [Ac]2 [GB]2 [FA]2 [EG]2 | [DF]4 ([EG]2 [Gc]2) | [GB]4 [DA]4 | [DG]8 |] %21
w: |||||
w: let us wor-|ship At His feet.||||
w: |||||
V:2
 x4 D2 x2 | x4 D4 | x8 | x8 | x8 | x8 | x8 | D8 | x8 | x8 | x8 | D4 D2 || x2 | x8 | x8 | x8 | x8 | %17
w: faith-|with||||||this||||||||||
w: for|drous||||||the||||let us||||||
w: might-|ye||||||our||||||||||
 x8 | x8 | x8 | x8 |] %21
w: ||||
w: ||||
w: ||||
V:3
 G,4 [D,A,]2 [E,B,]2 | [D,D]4 [D,D]4 | [G,D]2 [F,D]2 [G,D]2 [A,E]2 | [G,D]4 [D,D]2 [E,B,]2 | %4
 [E,B,]4 [D,A,]2 [C,G,]2 | [D,A,]2 [E,B,]2 [F,C]2 [G,D]2 | A,4 [A,,A,]4 | [D,A,]8 | %8
 B,4 [A,C]2 [G,D]2 | [A,E]4 [G,D]4 | [D,A,]2 G,2 [B,,B,]2 [C,A,]2 | [D,A,]4 [D,A,]2 || z2 | z8 | %14
 z6 G,2 | G,2 F,2 A,2 A,2 | G,4 D,2 [G,D]2 | [A,E]2 [G,D]2 [F,D]2 [E,B,]2 | %18
 (D,2 C,2) ([B,,B,]2 [C,G,]2) | [D,D]4 [D,D]4 | [G,,B,]8 |] %21
V:4
 G,4 x4 | x8 | x8 | x8 | x8 | x8 | A,4 x4 | x8 | B,4 x4 | x8 | x2 G,2 x4 | x6 || x2 | x8 | x8 | %15
 x8 | x8 | x8 | D4 x4 | x8 | x8 |] %21

